resources/svg/fedora.svg

<svg xmlns="http://www.w3.org/2000/svg" viewBox="0 0 24 24" fill="currentColor"><path fill="currentColor" fill-rule="evenodd" d="M11.9998121,0 C5.3752955,0 0.00469667319,5.36825049 0,11.9918748 L0,21.278137 C0.00352250489,22.7820587 1.22334247,23.9996243 2.72820352,23.9996243 L12.0046967,23.9996243 C18.6300587,23.9970411 24,18.6261605 24,12.0002818 C24,5.37285323 18.6273346,0 11.9998121,0 L11.9998121,0 Z M16.595319,5.57654795 C16.2162505,5.57654795 16.0784971,5.50370254 15.5230685,5.50370254 C13.883225,5.50370254 12.5531742,6.83187476 12.5504031,8.4717182 L12.5504031,11.0548415 C12.5504031,11.2862935 12.7382701,11.4738787 12.9702857,11.4738787 L14.9232094,11.4743014 C15.650771,11.4743014 16.2386536,12.0546693 16.2386536,12.7841566 C16.2390763,13.5183875 15.6447123,14.096454 14.9093542,14.096454 L12.5503562,14.096454 L12.5503562,17.0814247 C12.5503562,20.1916086 10.0288063,22.7134873 6.91852838,22.7134873 C6.44665362,22.7134873 6.11112329,22.6601331 5.67428571,22.5460978 C5.03736986,22.379319 4.51688454,21.8570489 4.51669667,21.2496282 C4.51669667,20.5156791 5.04962818,19.9814795 5.84627789,19.9814795 C6.22548728,19.9814795 6.3629589,20.0543249 6.91857534,20.0543249 C8.55832485,20.0543249 9.88837573,18.7260587 9.89133464,17.0864031 L9.89133464,14.5031389 C9.89133464,14.271499 9.70313894,14.0840078 9.47140509,14.0840078 L7.51848141,14.083773 C6.79082583,14.083773 6.20294325,13.5033581 6.20294325,12.7738239 C6.20256751,12.039499 6.79688454,11.4616204 7.53233659,11.4616204 L9.89100587,11.4616204 L9.89100587,8.47646184 C9.89100587,5.36627789 12.4128845,2.84449315 15.5230685,2.84449315 C15.9949432,2.84449315 16.3304736,2.89775342 16.7671703,3.01197652 C17.404274,3.17856751 17.9246184,3.70083757 17.9249941,4.30825832 C17.9249941,5.04248924 17.3920157,5.57654795 16.595319,5.57654795 L16.595319,5.57654795 Z"/></svg>

<svg viewBox="0 0 24 24"><path fill="currentColor" fill-rule="evenodd" d="M12 0C5.375 0 .005 5.368 0 11.992v9.286A2.728 2.728 0 0 0 2.728 24h9.277C18.63 23.997 24 18.626 24 12c0-6.627-5.373-12-12-12zm4.595 5.577c-.379 0-.517-.073-1.072-.073a2.973 2.973 0 0 0-2.973 2.968v2.583a.42.42 0 0 0 .42.419h1.953c.728 0 1.316.58 1.316 1.31c0 .734-.594 1.312-1.33 1.312H12.55v2.985a5.632 5.632 0 0 1-5.631 5.632c-.472 0-.808-.053-1.245-.167c-.637-.167-1.157-.689-1.157-1.296c0-.734.533-1.269 1.33-1.269c.378 0 .516.073 1.072.073c1.64 0 2.97-1.328 2.972-2.968v-2.583a.42.42 0 0 0-.42-.419H7.518c-.727 0-1.315-.58-1.315-1.31c0-.735.594-1.312 1.33-1.312H9.89V8.476a5.632 5.632 0 0 1 5.632-5.632c.472 0 .807.054 1.244.168c.637.167 1.158.689 1.158 1.296c0 .734-.533 1.269-1.33 1.269z"/></svg>
